src/assets/img/icons/duotone-icons/Home/Trash.svg

<?xml version="1.0" encoding="UTF-8"?>
<svg width="24px" height="24px" viewBox="0 0 24 24" version="1.1" xmlns="http://www.w3.org/2000/svg" xmlns:xlink="http://www.w3.org/1999/xlink">
    <!-- Generator: Sketch 52.2 (67145) - http://www.bohemiancoding.com/sketch -->
    <title>Stockholm-icons / Home / Trash</title>
    <desc>Created with Sketch.</desc>
    <g id="Stockholm-icons-/-Home-/-Trash" stroke="none" stroke-width="1" fill="none" fill-rule="evenodd">
        <rect id="bound" x="0" y="0" width="24" height="24"></rect>
        <path d="M6,8 L18,8 L17.106535,19.6150447 C17.04642,20.3965405 16.3947578,21 15.6109533,21 L8.38904671,21 C7.60524225,21 6.95358004,20.3965405 6.89346498,19.6150447 L6,8 Z M8,10 L8.45438229,14.0894406 L15.5517885,14.0339036 L16,10 L8,10 Z" id="Combined-Shape" fill="#335EEA"></path>
        <path d="M14,4.5 L14,3.5 C14,3.22385763 13.7761424,3 13.5,3 L10.5,3 C10.2238576,3 10,3.22385763 10,3.5 L10,4.5 L5.5,4.5 C5.22385763,4.5 5,4.72385763 5,5 L5,5.5 C5,5.77614237 5.22385763,6 5.5,6 L18.5,6 C18.7761424,6 19,5.77614237 19,5.5 L19,5 C19,4.72385763 18.7761424,4.5 18.5,4.5 L14,4.5 Z" id="Shape" fill="#335EEA" opacity="0.3"></path>
    </g>
</svg>

<svg width="24" height="24" viewBox="0 0 24 24" xmlns="http://www.w3.org/2000/svg"><g fill="none" fill-rule="evenodd"><path d="M0 0h24v24H0z"/><path d="M6 8h12l-.893 11.615A1.5 1.5 0 0115.61 21H8.389a1.5 1.5 0 01-1.496-1.385L6 8zm2 2l.454 4.09 7.098-.056L16 10H8z" fill="#335EEA"/><path d="M14 4.5v-1a.5.5 0 00-.5-.5h-3a.5.5 0 00-.5.5v1H5.5A.5.5 0 005 5v.5a.5.5 0 00.5.5h13a.5.5 0 00.5-.5V5a.5.5 0 00-.5-.5H14z" fill="#335EEA" opacity=".3"/></g></svg>
